; generated by PrusaSlicer 2.1.0+win64 on 2020-11-03 at 21:19:57 UTC

; 

; external perimeters extrusion width = 0.60mm
; perimeters extrusion width = 0.50mm
; infill extrusion width = 0.50mm
; solid infill extrusion width = 0.50mm
; top infill extrusion width = 0.45mm
; first layer extrusion width = 0.42mm

M73 P0 R74
M73 Q0 S74
M201 X1000 Y1000 Z1000 E5000 ; sets maximum accelerations, mm/sec^2
M203 X200 Y200 Z12 E120 ; sets maximum feedrates, mm/sec
M204 P1250 R1250 T1250 ; sets acceleration (P, T) and retract acceleration (R), mm/sec^2
M205 X8.00 Y8.00 Z0.40 E1.50 ; sets the jerk limits, mm/sec
M205 S0 T0 ; sets the minimum extruding and travel feed rate, mm/sec
M107
M862.3 P "MK3S" ; printer model check
M862.1 P0.4 ; nozzle diameter check
M115 U3.8.1 ; tell printer latest fw version
G90 ; use absolute coordinates
M83 ; extruder relative mode
M104 S225 ; set extruder temp
M140 S60 ; set bed temp
M190 S60 ; wait for bed temp
M109 S225 ; wait for extruder temp
G28 W ; home all without mesh bed level
G80 ; mesh bed leveling
G1 Y-3.0 F1000.0 ; go outside print area
G92 E0.0
G1 X60.0 E9.0 F1000.0 ; intro line
M73 Q0 S74
M73 P0 R74
G1 X100.0 E12.5 F1000.0 ; intro line
G92 E0.0
M221 S95
G21 ; set units to millimeters
G90 ; use absolute coordinates
M83 ; use relative distances for extrusion
M900 K30 ; Filament gcode
;BEFORE_LAYER_CHANGE
G92 E0.0
;0.2


G1 E-0.80000 F2100.00000
G1 Z0.600 F10800.000
;AFTER_LAYER_CHANGE
;0.2
G1 X120.469 Y100.232
G1 Z0.200
G1 E0.80000 F2100.00000
M204 S1000
G1 F1200
G1 X121.363 Y99.573 E0.03482
G1 X123.767 Y98.546 E0.08196
G1 X125.271 Y98.371 E0.04747
G1 X126.753 Y98.555 E0.04685
G1 X128.141 Y99.118 E0.04695
G1 X128.944 Y99.729 E0.03163
G1 X130.603 Y101.550 E0.07724
G1 X131.249 Y102.628 E0.03940
G1 X131.600 Y103.882 E0.04084
G1 X131.584 Y105.645 E0.05528
G1 X131.296 Y106.891 E0.04009
G1 X130.351 Y108.782 E0.06628
G1 X129.176 Y110.065 E0.05456
G1 X126.532 Y111.421 E0.09317
G1 X125.654 Y111.583 E0.02799
G1 X124.134 Y111.627 E0.04767
G1 X123.063 Y111.411 E0.03425
G1 X121.847 Y110.823 E0.04235
G1 X119.515 Y108.700 E0.09889
G1 X119.029 Y107.983 E0.02717
G1 X118.602 Y106.938 E0.03537
G1 X118.373 Y104.923 E0.06358
G1 X118.574 Y103.670 E0.03979
G1 X119.556 Y101.388 E0.07791
G1 X120.432 Y100.280 E0.04430
G1 X120.715 Y100.520 F10800.000
G1 F1200
G1 X121.532 Y99.911 E0.03196
G1 X123.890 Y98.904 E0.08038
G1 X125.248 Y98.748 E0.04286
G1 X126.637 Y98.915 E0.04386
G1 X127.934 Y99.435 E0.04382
G1 X128.677 Y99.996 E0.02919
G1 X130.312 Y101.791 E0.07611
G1 X130.893 Y102.754 E0.03528
G1 X131.229 Y103.957 E0.03917
G1 X131.208 Y105.620 E0.05213
G1 X130.949 Y106.743 E0.03612
G1 X130.026 Y108.589 E0.06473
G1 X128.922 Y109.785 E0.05103
G1 X126.436 Y111.056 E0.08754
G1 X125.627 Y111.207 E0.02580
G1 X124.185 Y111.253 E0.04523
G1 X123.205 Y111.061 E0.03131
G1 X122.036 Y110.495 E0.04071
G1 X119.814 Y108.468 E0.09432
G1 X119.370 Y107.821 E0.02461
G1 X118.961 Y106.820 E0.03391
G1 X118.749 Y104.956 E0.05881
G1 X118.930 Y103.797 E0.03677
G1 X119.892 Y101.559 E0.07638
G1 X120.677 Y100.567 E0.03968
G1 X120.961 Y100.806 F10800.000
G1 F1200
G1 X121.702 Y100.248 E0.02907
G1 X124.012 Y99.261 E0.07878
G1 X125.226 Y99.125 E0.03830
G1 X126.522 Y99.275 E0.04090
G1 X127.729 Y99.752 E0.04069
G1 X128.410 Y100.263 E0.02672
G1 X130.021 Y102.031 E0.07498
G1 X130.537 Y102.881 E0.03116
G1 X130.859 Y104.032 E0.03748
G1 X130.831 Y105.593 E0.04896
G1 X130.602 Y106.594 E0.03219
G1 X129.701 Y108.396 E0.06316
G1 X128.669 Y109.503 E0.04746
G1 X126.339 Y110.690 E0.08198
G1 X125.599 Y110.830 E0.02363
G1 X124.234 Y110.878 E0.04283
G1 X123.346 Y110.710 E0.02832
G1 X122.225 Y110.168 E0.03906
G1 X120.111 Y108.236 E0.08979
G1 X119.711 Y107.659 E0.02202
G1 X119.320 Y106.701 E0.03243
G1 X119.126 Y104.987 E0.05408
G1 X119.286 Y103.923 E0.03373
G1 X120.229 Y101.731 E0.07482
G1 X120.924 Y100.853 E0.03512
G1 X121.209 Y101.091 F10800.000
G1 F1200
G1 X121.872 Y100.586 E0.02614
G1 X124.134 Y99.619 E0.07715
G1 X125.205 Y99.502 E0.03378
G1 X126.409 Y99.635 E0.03797
G1 X127.525 Y100.070 E0.03754
G1 X128.144 Y100.531 E0.02422
G1 X129.730 Y102.272 E0.07385
G1 X130.181 Y103.008 E0.02705
G1 X130.488 Y104.106 E0.03576
G1 X130.455 Y105.565 E0.04576
G1 X130.254 Y106.446 E0.02831
G1 X129.376 Y108.202 E0.06156
G1 X128.417 Y109.221 E0.04386
G1 X126.242 Y110.325 E0.07648
G1 X125.570 Y110.454 E0.02148
G1 X124.280 Y110.504 E0.04046
G1 X123.487 Y110.359 E0.02528
G1 X122.414 Y109.840 E0.03737
G1 X120.408 Y108.002 E0.08532
G1 X120.052 Y107.496 E0.01940
G1 X119.679 Y106.583 E0.03093
G1 X119.502 Y105.017 E0.04941
G1 X119.642 Y104.049 E0.03065
G1 X120.565 Y101.903 E0.07324
G1 X121.171 Y101.138 E0.03060
G1 X121.458 Y101.375 F10800.000
G1 F1200
G1 X122.043 Y100.923 E0.02318
G1 X124.256 Y99.977 E0.07548
G1 X125.186 Y99.879 E0.02930
G1 X126.298 Y99.996 E0.03507
G1 X127.322 Y100.389 E0.03439
G1 X127.878 Y100.799 E0.02166
G1 X129.440 Y102.514 E0.07272
G1 X129.825 Y103.136 E0.02293
G1 X130.117 Y104.180 E0.03401
G1 X130.078 Y105.536 E0.04254
G1 X129.907 Y106.298 E0.02448
G1 X129.051 Y108.008 E0.05994
G1 X128.167 Y108.937 E0.04022
G1 X126.145 Y109.960 E0.07106
G1 X125.539 Y110.078 E0.01934
G1 X124.324 Y110.129 E0.03815
G1 X123.627 Y110.008 E0.02217
G1 X122.603 Y109.513 E0.03565
G1 X120.703 Y107.767 E0.08093
G1 X120.392 Y107.332 E0.01674
G1 X120.038 Y106.464 E0.02940
G1 X119.879 Y105.044 E0.04479
G1 X119.999 Y104.174 E0.02754
G1 X120.902 Y102.075 E0.07164
G1 X121.420 Y101.422 E0.02615
G1 X121.238 Y102.248 F10800.000
G1 F1200
G1 X121.708 Y101.658 E0.02366
G1 X122.214 Y101.260 E0.02018
G1 X124.378 Y100.335 E0.07376
G1 X125.165 Y100.256 E0.02481
G1 X126.234 Y100.369 E0.03371
G1 X127.121 Y100.709 E0.02977
G1 X127.613 Y101.067 E0.01909
G1 X129.150 Y102.755 E0.07159
G1 X129.469 Y103.264 E0.01881
G1 X129.746 Y104.253 E0.03221
G1 X129.702 Y105.505 E0.03929
G1 X129.559 Y106.150 E0.02070
G1 X128.727 Y107.813 E0.05829
G1 X127.918 Y108.652 E0.03655
G1 X126.046 Y109.595 E0.06573
G1 X125.507 Y109.702 E0.01722
G1 X124.364 Y109.753 E0.03590
G1 X123.765 Y109.656 E0.01900
G1 X122.793 Y109.186 E0.03388
G1 X120.996 Y107.529 E0.07662
G1 X120.732 Y107.168 E0.01403
G1 X120.397 Y106.346 E0.02783
G1 X120.256 Y105.070 E0.04025
G1 X120.356 Y104.298 E0.02439
G1 X121.214 Y102.303 E0.06812
G1 X121.549 Y102.463 F10800.000
G1 F1200
G1 X121.989 Y101.911 E0.02214
G1 X122.425 Y101.573 E0.01732
G1 X124.446 Y100.707 E0.06892
G1 X125.145 Y100.633 E0.02206
G1 X126.169 Y100.741 E0.03226
G1 X126.958 Y101.050 E0.02658
G1 X127.372 Y101.358 E0.01617
G1 X128.859 Y102.996 E0.06936
G1 X129.134 Y103.440 E0.01638
G1 X129.368 Y104.269 E0.02702
G1 X129.326 Y105.474 E0.03780
G1 X129.197 Y106.043 E0.01831
G1 X128.403 Y107.618 E0.05528
G1 X127.719 Y108.330 E0.03098
G1 X125.946 Y109.231 E0.06236
G1 X125.476 Y109.326 E0.01504
G1 X124.367 Y109.376 E0.03478
G1 X123.855 Y109.289 E0.01629
G1 X123.028 Y108.890 E0.02881
G1 X121.266 Y107.266 E0.07511
G1 X121.052 Y106.966 E0.01154
G1 X120.768 Y106.278 E0.02334
G1 X120.633 Y105.052 E0.03867
G1 X120.726 Y104.375 E0.02142
G1 X121.525 Y102.518 E0.06340
G1 X121.859 Y102.678 F10800.000
G1 F1200
G1 X122.268 Y102.165 E0.02059
G1 X122.634 Y101.887 E0.01440
G1 X124.516 Y101.079 E0.06421
G1 X125.127 Y101.010 E0.01927
G1 X126.102 Y101.113 E0.03076
G1 X126.793 Y101.389 E0.02331
G1 X127.128 Y101.646 E0.01325
G1 X128.568 Y103.235 E0.06722
G1 X128.799 Y103.614 E0.01393
G1 X128.990 Y104.286 E0.02189
G1 X128.950 Y105.442 E0.03628
G1 X128.835 Y105.935 E0.01587
G1 X128.080 Y107.423 E0.05231
G1 X127.518 Y108.009 E0.02546
G1 X125.844 Y108.867 E0.05899
G1 X125.443 Y108.950 E0.01282
G1 X124.372 Y108.998 E0.03362
G1 X123.947 Y108.923 E0.01353
G1 X123.263 Y108.593 E0.02382
G1 X121.538 Y107.003 E0.07356
G1 X121.373 Y106.767 E0.00901
G1 X121.140 Y106.210 E0.01895
G1 X121.011 Y105.036 E0.03703
G1 X121.095 Y104.455 E0.01840
G1 X121.835 Y102.733 E0.05875
G1 X122.182 Y102.882 F10800.000
G1 F1200
G1 X122.546 Y102.421 E0.01843
G1 X122.804 Y102.225 E0.01018
G1 X124.638 Y101.437 E0.06258
G1 X125.106 Y101.387 E0.01476
G1 X126.037 Y101.486 E0.02934
G1 X126.586 Y101.706 E0.01856
G1 X126.861 Y101.913 E0.01080
G1 X128.277 Y103.477 E0.06614
G1 X128.444 Y103.744 E0.00987
G1 X128.619 Y104.359 E0.02006
G1 X128.574 Y105.409 E0.03294
G1 X128.488 Y105.785 E0.01212
G1 X127.757 Y107.225 E0.05064
G1 X127.271 Y107.723 E0.02182
G1 X125.741 Y108.504 E0.05385
G1 X125.409 Y108.574 E0.01064
G1 X124.411 Y108.623 E0.03132
G1 X124.081 Y108.569 E0.01049
G1 X123.496 Y108.295 E0.02026
G1 X121.831 Y106.765 E0.07089
G1 X121.712 Y106.601 E0.00637
G1 X121.499 Y106.090 E0.01736
G1 X121.387 Y105.062 E0.03241
G1 X121.452 Y104.579 E0.01528
G1 X122.158 Y102.938 E0.05603
G1 X122.821 Y102.679 F10800.000
G1 F1200
G1 X122.975 Y102.562 E0.00608
G1 X124.759 Y101.795 E0.06088
G1 X125.084 Y101.764 E0.01025
G1 X125.971 Y101.858 E0.02796
G1 X126.382 Y102.024 E0.01390
G1 X126.595 Y102.181 E0.00830
G1 X127.989 Y103.720 E0.06510
G1 X128.090 Y103.875 E0.00581
G1 X128.247 Y104.431 E0.01812
G1 X128.198 Y105.373 E0.02958
G1 X128.140 Y105.637 E0.00845
G1 X127.435 Y107.027 E0.04889
G1 X127.027 Y107.435 E0.01809
G1 X125.636 Y108.141 E0.04889
G1 X125.373 Y108.198 E0.00845
G1 X124.444 Y108.247 E0.02917
G1 X124.209 Y108.213 E0.00745
G1 X123.727 Y107.996 E0.01656
G1 X122.119 Y106.522 E0.06842
G1 X122.050 Y106.431 E0.00357
G1 X121.858 Y105.970 E0.01566
G1 X121.764 Y105.085 E0.02792
G1 X121.810 Y104.702 E0.01209
G1 X122.530 Y103.028 E0.05715
G1 X122.782 Y102.725 E0.01235
G1 X123.067 Y102.971 F10800.000
G1 F1200
G1 X123.179 Y102.879 E0.00457
G1 X124.828 Y102.167 E0.05632
G1 X125.066 Y102.142 E0.00749
G1 X125.902 Y102.230 E0.02638
G1 X126.212 Y102.361 E0.01055
G1 X126.327 Y102.447 E0.00450
G1 X127.698 Y103.960 E0.06401
G1 X127.756 Y104.053 E0.00346
G1 X127.869 Y104.443 E0.01274
G1 X127.823 Y105.337 E0.02804
G1 X127.779 Y105.529 E0.00617
G1 X127.113 Y106.829 E0.04580
G1 X126.828 Y107.113 E0.01261
G1 X125.528 Y107.779 E0.04580
G1 X125.336 Y107.823 E0.00617
G1 X124.445 Y107.869 E0.02798
G1 X124.292 Y107.845 E0.00485
G1 X123.959 Y107.697 E0.01143
G1 X122.389 Y106.258 E0.06677
G1 X122.230 Y105.902 E0.01223
G1 X122.142 Y105.068 E0.02629
G1 X122.180 Y104.779 E0.00916
G1 X122.863 Y103.206 E0.05377
G1 X123.027 Y103.017 E0.00785
G1 X123.304 Y103.269 F10800.000
G1 F1200
G1 X123.375 Y103.201 E0.00306
G1 X124.903 Y102.537 E0.05225
G1 X125.049 Y102.519 E0.00462
G1 X125.830 Y102.601 E0.02463
G1 X126.059 Y102.712 E0.00796
G1 X127.404 Y104.198 E0.06284
G1 X127.491 Y104.458 E0.00859
G1 X127.447 Y105.298 E0.02639
G1 X127.418 Y105.416 E0.00380
G1 X126.791 Y106.630 E0.04283
G1 X126.629 Y106.792 E0.00719
G1 X125.415 Y107.418 E0.04283
G1 X125.298 Y107.447 E0.00380
G1 X124.411 Y107.487 E0.02783
G1 X124.187 Y107.395 E0.00758
G1 X122.687 Y106.019 E0.06383
G1 X122.601 Y105.830 E0.00650
G1 X122.519 Y105.049 E0.02463
G1 X122.537 Y104.903 E0.00462
G1 X123.196 Y103.387 E0.05184
G1 X123.263 Y103.313 E0.00314
G1 X123.525 Y103.575 F10800.000
G1 F1200
G1 X123.575 Y103.525 E0.00222
G1 X124.988 Y102.904 E0.04840
G1 X125.752 Y102.972 E0.02404
G1 X125.814 Y103.004 E0.00218
G1 X127.087 Y104.409 E0.05945
G1 X127.112 Y104.480 E0.00236
G1 X127.061 Y105.295 E0.02560
G1 X126.470 Y106.430 E0.04011
G1 X126.429 Y106.471 E0.00182
G1 X125.294 Y107.061 E0.04011
G1 X124.480 Y107.112 E0.02559
G1 X124.409 Y107.087 E0.00236
G1 X123.004 Y105.814 E0.05945
G1 X122.972 Y105.752 E0.00218
G1 X122.904 Y104.989 E0.02404
G1 X123.501 Y103.630 E0.04652
G1 X123.843 Y103.843 F10800.000
G1 F1200
G1 X125.075 Y103.302 E0.04220
G1 X125.596 Y103.357 E0.01642
G1 X126.708 Y104.584 E0.05192
G1 X126.677 Y105.169 E0.01838
G1 X126.161 Y106.161 E0.03506
G1 X125.169 Y106.677 E0.03506
G1 X124.584 Y106.708 E0.01837
G1 X123.356 Y105.596 E0.05192
G1 X123.301 Y105.075 E0.01642
G1 X123.819 Y103.898 E0.04032
G1 X124.220 Y103.975 F10800.000
G1 X124.129 Y104.129
G1 F1200
G1 X125.135 Y103.687 E0.03446
G1 X125.413 Y103.716 E0.00877
G1 X126.323 Y104.721 E0.04249
G1 X126.305 Y105.068 E0.01089
G1 X125.881 Y105.882 E0.02876
G1 X125.067 Y106.305 E0.02876
G1 X124.721 Y106.323 E0.01089
G1 X123.716 Y105.413 E0.04249
G1 X123.687 Y105.135 E0.00876
G1 X124.105 Y104.184 E0.03258
G1 X124.415 Y104.415 F10800.000
G1 F1200
G1 X125.195 Y104.073 E0.02671
G1 X125.230 Y104.076 E0.00111
G1 X125.938 Y104.858 E0.03306
G1 X125.932 Y104.966 E0.00341
G1 X125.602 Y105.602 E0.02246
G1 X124.966 Y105.933 E0.02247
G1 X124.858 Y105.938 E0.00340
G1 X124.076 Y105.230 E0.03306
G1 X124.072 Y105.195 E0.00111
G1 X124.391 Y104.470 E0.02483
G1 X124.701 Y104.701 F10800.000
G1 F1200
G1 X125.121 Y104.517 E0.01437
G1 X125.515 Y104.952 E0.01841
G1 X125.322 Y105.322 E0.01308
G1 X124.952 Y105.515 E0.01308
G1 X124.517 Y105.121 E0.01840
G1 X124.677 Y104.756 E0.01249
G1 X124.888 Y104.743 F10800.000
G1 F1200
G1 X125.288 Y105.142 E0.02128
M106 S255
;BEFORE_LAYER_CHANGE
G92 E0.0
;0.344909


G1 F8640
G1 X124.888 Y104.743 E-0.13057
G1 E-0.66943 F2100.00000
G1 Z0.800 F10800.000
;AFTER_LAYER_CHANGE
;0.344909
M104 S215 ; set temperature
G1 X124.621 Y103.714
G1 Z0.345
G1 E0.80000 F2100.00000
M204 S800
G1 F900
G1 X125.589 Y103.816 E0.02748
G1 X125.658 Y103.844 E0.00210
G1 X126.233 Y104.532 E0.02534
G1 X126.300 Y104.959 E0.01222
G1 X126.271 Y105.513 E0.01566
G1 X125.944 Y105.944 E0.01528
G1 X125.513 Y106.271 E0.01528
G1 X124.959 Y106.300 E0.01567
G1 X124.532 Y106.233 E0.01221
G1 X123.844 Y105.658 E0.02534
G1 X123.816 Y105.589 E0.00209
G1 X123.714 Y104.621 E0.02749
G1 X124.072 Y104.072 E0.01852
G1 X124.571 Y103.747 E0.01682
M204 S1000
G1 F8640
G1 X125.589 Y103.816 E-0.23554
G1 X125.658 Y103.844 E-0.01715
G1 X126.233 Y104.532 E-0.20713
G1 X126.300 Y104.959 E-0.09985
G1 X126.271 Y105.513 E-0.12801
G1 X126.082 Y105.763 E-0.07232
G1 E-0.04000 F2100.00000
G1 Z0.945 F10800.000
G1 X125.702 Y103.357
G1 Z0.345
G1 E0.80000 F2100.00000
M204 S800
G1 F900
G1 X125.941 Y103.452 E0.00727
G1 X126.676 Y104.331 E0.03236
G1 X126.770 Y104.935 E0.01727
G1 X126.732 Y105.664 E0.02061
G1 X126.279 Y106.279 E0.02159
G1 X125.664 Y106.733 E0.02159
G1 X124.935 Y106.771 E0.02062
G1 X124.331 Y106.676 E0.01726
G1 X123.452 Y105.942 E0.03237
G1 X123.357 Y105.703 E0.00727
G1 X123.230 Y104.505 E0.03402
G1 X123.733 Y103.733 E0.02602
G1 X124.505 Y103.231 E0.02602
G1 X125.643 Y103.351 E0.03232
M204 S1000
G1 X125.692 Y102.884 F10800.000
M204 S800
G1 F900
G1 X125.816 Y102.897 E0.00352
G1 X126.225 Y103.061 E0.01245
G1 X127.120 Y104.130 E0.03939
G1 X127.241 Y104.911 E0.02232
G1 X127.196 Y105.771 E0.02434
G1 X127.125 Y105.939 E0.00513
G1 X126.613 Y106.613 E0.02393
G1 X125.938 Y107.125 E0.02393
G1 X125.771 Y107.197 E0.00513
G1 X124.911 Y107.241 E0.02434
G1 X124.130 Y107.120 E0.02231
G1 X123.061 Y106.225 E0.03939
G1 X122.897 Y105.816 E0.01244
G1 X122.747 Y104.388 E0.04058
G1 X123.394 Y103.394 E0.03349
G1 X124.387 Y102.748 E0.03349
G1 X125.632 Y102.878 E0.03536
M204 S1000
G1 X125.687 Y102.362 F10800.000
M204 S800
G1 F900
G1 X125.942 Y102.389 E0.00879
G1 X126.539 Y102.627 E0.02206
G1 X127.610 Y103.908 E0.05722
G1 X127.762 Y104.884 E0.03386
G1 X127.710 Y105.890 E0.03452
G1 X127.577 Y106.201 E0.01158
G1 X126.984 Y106.984 E0.03367
G1 X126.201 Y107.578 E0.03367
G1 X125.890 Y107.710 E0.01158
G1 X124.884 Y107.762 E0.03453
G1 X123.908 Y107.610 E0.03385
G1 X122.627 Y106.539 E0.05722
G1 X122.389 Y105.942 E0.02205
G1 X122.222 Y104.363 E0.05441
G1 X122.260 Y104.186 E0.00622
G1 X123.019 Y103.019 E0.04771
G1 X124.186 Y102.260 E0.04771
G1 X124.363 Y102.222 E0.00622
G1 X125.627 Y102.356 E0.04355
M204 S1000
G1 X125.794 Y102.595 F10800.000
G1 F8640
G1 X125.942 Y102.389 E-0.07307
G1 X126.539 Y102.627 E-0.14859
G1 X127.610 Y103.908 E-0.38548
G1 X127.712 Y104.562 E-0.15286
G1 E-0.04000 F2100.00000
G1 Z0.945 F10800.000
G1 X124.781 Y103.873
G1 Z0.345
G1 E0.80000 F2100.00000
M204 S1250
G1 F900
G1 X124.323 Y104.331 E0.01883
G1 X124.077 Y104.709 E0.01307
G1 X124.129 Y105.206 E0.01452
G1 X125.206 Y104.130 E0.04419
G1 X125.461 Y104.157 E0.00744
G1 X125.643 Y104.374 E0.00824
G1 X124.374 Y105.643 E0.05208
G1 X124.683 Y105.901 E0.01168
G1 X124.782 Y105.916 E0.00292
G1 X125.916 Y104.782 E0.04656
G1 X125.947 Y104.978 E0.00574
G1 X125.925 Y105.387 E0.01189
G1 X125.712 Y105.668 E0.01024
